!!!!SEGMENT: pl-kk--kk-i-386--003-005_anonim--missa-3tia-sanctus.krn
!!!cenid: 18xx:4520
!!!COM: Anonim
!!!COM-rismID: pe30004985
!!!CDT:
!!!CNT:
!!!OPR: Missa 3tia
!!!OTL: Sanctus
!!!OMV: 005
!!!PDT:
!!!AGN: Sacred
!!!YEC: Copyright 2022 Narodowy Instytut Fryderyka Chopina (https://polishscores.org)
!!!YEM: License CC-BY-4.0 (https://creativecommons.org/licenses/by/4.0)
!!!SMS-siglum: PL-Kk
!!!SMS-shelfmark: Kk.I.386
!!!SMS-variant:
!!!SMS-altvar:
!!!SMS-shelfwork: 003-005 M
!!!NIFC-rismSourceID: 1001218240
!!!NIFC-rismChildID: 1001218244
!!!NIFC-islandoraID: pl-kk:16060
!!!URL-pdf-islandora: https://repozytorium.nifc.pl/islandora/object/pl-kk%3A16060/datastream/PDF/view
!!!URL-scan: https://polish.musicsources.pl/pl/lokalizacje/galeria/rekopisy/7134/3 @EN{Scan on Polish Music Sources Website} @PL{Skany w portalu Dziedzictwo Muzyki Polskiej w otwartym dostępie}
!!!IIIF:
!!!ONB-nifc: UWAGA: Części Missy 3tia: Kyrie, Gloria, Graduale, Offertorium, Sanctus, Benedictus, Agnus. Zakres skanów: S -9-11, A – 19-21, T – 29-31, B – 39-41
!!!AIN: 1 alto 1 bass 1 soprn 1 tenor
!!!key:
**kern	**text	**kern	**text	**kern	**text	**kern	**text
*part4	*part4	*part3	*part3	*part2	*part2	*part1	*part1
*staff4	*staff4	*staff3	*staff3	*staff2	*staff2	*staff1	*staff1
*I"Basso.	*	*I"Tenore.	*	*I"Alto.	*	*I"Soprano.	*
*I'B	*	*I'T	*	*I'A	*	*I'S	*
*Ibass	*	*Itenor	*	*Ialto	*	*Isoprn	*
*ICvox	*	*ICvox	*	*ICalt	*	*ICvox	*
*clefF4	*	*clefC4	*	*clefC3	*	*clefC1	*
*k[b-]	*	*k[b-]	*	*k[b-]	*	*k[b-]	*
*F:	*	*F:	*	*F:	*	*F:	*
*M4/4	*	*M4/4	*	*M4/4	*	*M4/4	*
*met(c)	*	*met(c)	*	*met(c)	*	*met(c)	*
=1	=1	=1	=1	=1	=1	=1	=1
!	!	!	!	!	!	!LO:TX:t=P:problem:all\right:global	!
!LO:TX:a:t=in F.	!	!LO:TX:a:t=in F.	!	!	!	!LO:TX:a:t=in F.	!
*2\right	*	*	*	*	*	*	*
2F\	San-	4.F/	San-	4.f\	San-	4.f/	San-
.	.	8A\	.	8a\	.	8a\	.
2F\	-ctus	4c\	.	4cc\	.	4cc\	.
.	.	4c\	-ctus	4cc\	-ctus	4cc\	-ctus
=2	=2	=2	=2	=2	=2	=2	=2
*	*	*2\right	*	*2\right	*	*2\right	*
2c\	san-	2.c\	san-	2.cc\	San-	2.cc\	san-
2E\	-ctus,	.	.	.	.	.	.
.	.	4G/	-ctus	4cc\	-ctus	4g\	-ctus
=3	=3	=3	=3	=3	=3	=3	=3
2F\	san-	2A\	san-	2f\	san-	4.a\	san-
.	.	.	.	.	.	8cc\	.
2D\	-ctus	4d\	.	4.a\	.	4ff\	.
.	.	4d\	-ctus	.	.	4ff\	-ctus
.	.	.	.	8a\	-ctus	.	.
=4	=4	=4	=4	=4	=4	=4	=4
2.AA/	san-	2.c\	san-	2.a\	san-	2.ee\	san-
4C/	-ctus	4A\	-ctus	4e\	-ctus	4cc\	-ctus
=5	=5	=5	=5	=5	=5	=5	=5
2C/	Do-	4.A\	Do-	4.f#X\	Do-	2dd\	Do-
.	.	8d\	.	8a\	.	.	.
!	!	!LO:LB:g=original	!	!	!	!	!
4BB-/	-mi-	4d\	-mi-	4b-X\	-mi-	4gg\	-mi-
4BB-/	-nus	4G/	-nus	4d\	-nus	4gg\	-nus
!	!	!	!	!LO:LB:g=original	!	!LO:LB:g=original	!
=6	=6	=6	=6	=6	=6	=6	=6
2BB-/	De-	4.G/	De-	4.e\	De-	2cc\	De-
.	.	8c\	.	8f\	.	.	.
4AA/	.	4c\	.	4a\	.	4ff\	.
4C/	-us	4G/	-us	4e\	-us	4cc\	-us
!LO:LB:g=original	!	!	!	!	!	!	!
=7	=7	=7	=7	=7	=7	=7	=7
2.D\	sa-	2.F/	sa-	2.d\	sa-	4.f/	sa-
.	.	.	.	.	.	8g/	.
.	.	.	.	.	.	4a\	.
4D\	-ba-	4G/	-ba-	4f\	-ba-	4bn\	-ba-
=8	=8	=8	=8	=8	=8	=8	=8
2C/	-ot,	2G/	-ot,	2e\	-ot,	2cc\	-ot,
4r	.	4r	.	4r	.	4r	.
4G\	san-	4G/	ſan-	4g\	san-	[4g\	san-
=9	=9	=9	=9	=9	=9	=9	=9
2C/	.	2G/	.	2e\	.	2g\]	.
2D\	-ctus	2Bn\	-ctus	2f\	-ctus	2g\	-ctus
=10	=10	=10	=10	=10	=10	=10	=10
2E\	san-	2.c\	san-	2g\	san-	4.cc\	san-
.	.	.	.	.	.	8ee\	.
2C/	-ctus	.	.	2g\	-ctus	4.ee\	-ctus
.	.	4c\	-ctus	.	.	.	.
.	.	.	.	.	.	8gg\	.
=11	=11	=11	=11	=11	=11	=11	=11
2.GG/	san-	4.e\	san-	2.g\	san-	4.gg\	san-
.	.	8d\	.	.	.	8ff\	.
!	!	!LO:LB:g=original	!	!	!	!	!
.	.	4c\	.	.	.	4ee\	.
4GG/	-ctus	4Bn\	-ctus	4f\	-ctus	4dd\	-ctus
!	!	!	!	!	!	!LO:LB:g=original	!
=12	=12	=12	=12	=12	=12	=12	=12
2C/	Do-	4c\	Do-	2e\	Do-	4cc\	Do-
.	.	4G/	.	.	.	4g/	.
4C/	-mi-	4E/	-mi-	4c\	-mi-	4e/	-mi-
4BBn/	-nus	4G/	-nus	4d\	-nus	4g/	-nus
!	!	!	!	!LO:LB:g=original	!	!	!
=13	=13	=13	=13	=13	=13	=13	=13
2C/	De-	2G/	De-	2e\	De-	2g\	De-
2D/	-us	2Bn\	-us	2f\	-us	2g\	-us
!LO:LB:g=original	!	!	!	!	!	!	!
=14	=14	=14	=14	=14	=14	=14	=14
2E/	Do-	2c\	Do-	2g\	Do-	4.cc\	Do-
.	.	.	.	.	.	8ee\	.
4C/	-mi-	4.c\	-mi-	4g\	-mi-	4.ee\	-mi-
4C/	-nus	.	.	4g\	-nus	.	.
.	.	8e\	-nus	.	.	8gg\	-nus
=15	=15	=15	=15	=15	=15	=15	=15
2.GG/	De-	4.e\	De-	2.g\	De-	4.gg\	De-
.	.	8d\	.	.	.	8ff\	.
.	.	4c\	.	.	.	4ee\	.
4GG/	-us	4Bn\	-us	4f\	-us	4dd\	-us
=16	=16	=16	=16	=16	=16	=16	=16
2C/	De-	4c\	sa-	2e\	De-	4cc\	De-
.	.	4G/	.	.	.	4g\	.
4C/	.	4E/	.	4c\	.	4e/	.
4BB-X/	-us	4c\	-ba-	4e\	-us	4cc\	-us,
!	!	!LO:LB:g=original	!	!	!	!	!
=17	=17	=17	=17	=17	=17	=17	=17
2AA/	sa-	2c\	-ot,	2.f\	sa-	4.ff\	sa-
.	.	.	.	.	.	8ee\	.
!	!	!	!	!	!	!LO:LB:g=original	!
8BB-/L	.	4Bn\	ple-	.	.	4dd\	.
8C/J	.	.	.	.	.	.	.
8D\L	-ba-	4B\	-ni	8e\L	-ba-	4dd\	-ba-
8E\J	.	.	.	8f\J	.	.	.
=18	=18	=18	=18	=18	=18	=18	=18
4F\	-ot	4.A/	ple-	4.a\	-ot,	4.cc\	-ot
8C\L	ple-	.	.	.	.	.	.
8C#X\J	.	8G/	.	8e\	ple-	8b-\	ple-
4D\	-ni	4F/	-ni	4f\	-ni	4a\	-ni
4E\	sunt	4c\	sunt	4g\	sunt	4g\	sunt
!	!	!	!	!LO:LB:g=original	!	!	!
=19	=19	=19	=19	=19	=19	=19	=19
4F\	ce-	2c\	ce-	2f\	ce-	2cc\	ce-
4AA/	.	.	.	.	.	.	.
!LO:LB:g=original	!	!	!	!	!	!	!
4BB-/	-li	4B-\	-li	4f\	-li	4dd\	-li
4GG/	et	4d\	et	4b-\	et	4gg\	et
=20	=20	=20	=20	=20	=20	=20	=20
1C	ter-	1c	ter-	2a\	ter-	2ff\	Ter-
.	.	.	.	4g\	.	2ee\	.
.	.	.	.	4b-\	.	.	.
=21	=21	=21	=21	=21	=21	=21	=21
2F\	-ra	2c\	-ra	2a\	-ra	2ff\	-ra,
4r	.	4r	.	4r	.	4r	.
4BB-X/	glo-	4c\	glo-	4e\	glo-	4cc\	glo-
=22	=22	=22	=22	=22	=22	=22	=22
2AA/	.	2c\	.	2f\	.	4.ff\	.
.	.	.	.	.	.	8ee\	.
8BB-/L	-ri-	4B-\	-ri-	4f\	-ri-	4dd\	-ri-
8C/J	.	.	.	.	.	.	.
8D\L	-a	4B-\	-a	8f\L	-a	4dd\	-a
8E\J	.	.	.	8g\J	.	.	.
!	!	!LO:LB:g=original	!	!	!	!	!
=23	=23	=23	=23	=23	=23	=23	=23
4F\	tu-	4.A/	glo-	4.a\	glo-	4.cc\	tu-
8C\L	.	.	.	.	.	.	.
8C#X\J	.	8G/	.	8e\	.	8b-\	.
!	!	!	!	!	!	!LO:LB:g=original	!
4D\	-a,	4F/	-ri-	4f\	-ria	4a\	-a,
4E\	O-	4c\	-a	4g\	O-	4g\	o-
=24	=24	=24	=24	=24	=24	=24	=24
4F\	-san-	4c\	glo-	4f\	-san-	4cc\	-san-
4AA/	-na	4c\	.	4f\	-na	4cc\	-na
4BB-/	in	4B-\	-ri-	4f\	in	4dd\	in
4GG/	ex-	4d\	-a	4b-\	ex-	4gg\	ex-
!LO:LB:g=original	!	!	!	!LO:LB:g=original	!	!	!
=25	=25	=25	=25	=25	=25	=25	=25
1C	-cel-	1c	tu-	2a\	-cel-	2ff\	-cel-
.	.	.	.	4g\	.	2ee\	.
.	.	.	.	4b-\	.	.	.
=26	=26	=26	=26	=26	=26	=26	=26
2F\	-sis,	2c\	-a	2a\	-sis	2ff\	-sis
4r	.	4r	.	4r	.	4r	.
4BB-X/	o-	4c\	o-	4e\	o-	4cc\	o-
=27	=27	=27	=27	=27	=27	=27	=27
4AA/	-san-	4.c\	-san-	4.f\	-san-	4.ff\	-san-
4AA/	-na	.	.	.	.	.	.
.	.	8c\	-na	8f\	-na	8ee\	.
8BB-/L	in	4B-\	in	4f\	in	4dd\	-na,
8C/J	.	.	.	.	.	.	.
8D\L	ex-	4B-\	ex-	8f\L	ex-	4dd\	o-
8E\J	.	.	.	8g\J	.	.	.
=28	=28	=28	=28	=28	=28	=28	=28
4F\	-cel-	4.A/	-cel-	4.a\	-cel-	4.cc\	-san-
8C/L	.	.	.	.	.	.	.
8C#X/J	.	8G/	.	8e\	.	8b-\	.
!	!	!LO:LB:g=original	!	!	!	!	!
4D\	-sis	4F/	-sis	4f\	-sis	4a\	-na
4E\	o-	4c\	o-	4g\	o-	4g\	o-
!	!	!	!	!	!	!LO:LB:g=original	!
=29	=29	=29	=29	=29	=29	=29	=29
4F\	-san-	4c\	-san-	4f\	-san-	4cc\	-san-
4AA/	-na	4c\	-na	4f\	-na	4cc\	-na
4BB-/	in	4B-\	in	4f\	in	4dd\	in
4GG/	ex-	4d\	ex-	4b-\	ex-	4gg\	ex-
!LO:LB:g=original	!	!	!	!	!	!	!
=30	=30	=30	=30	=30	=30	=30	=30
1C	-cel-	1c	-cel-	2a\	-cel-	2ff\	-cel-
.	.	.	.	4g\	.	2ee\	.
.	.	.	.	4b-\	.	.	.
=31	=31	=31	=31	=31	=31	=31	=31
2F\	-sis.	2c\	-sis.	2a\	-sis.	2ff\	-sis.
2r	.	2r	.	2r	.	2r	.
==	==	==	==	==	==	==	==
*-	*-	*-	*-	*-	*-	*-	*-
!!!system-decoration: [(s1,s2,s3,s4)]
!!!ENC: Andrzej Gręziak
!!!END: 2023-11-02
!!!ENC: Leszek Kubiak
!!!END: 2024-06-28
